images/icons/icon-instagram.svg

<svg xmlns="http://www.w3.org/2000/svg" width="24" height="24" viewBox="0 0 24 24"><path d="M17.25 7.288v1.269c0 .297-.241.539-.538.539h-1.269c-.299 0-.538-.242-.538-.539v-1.269c0-.297.239-.538.538-.538h1.269c.297 0 .538.241.538.538zm-5.25 7.403c1.486 0 2.693-1.205 2.693-2.692s-1.207-2.69-2.693-2.69c-1.487 0-2.691 1.204-2.691 2.691s1.204 2.691 2.691 2.691zm4.261-3.291c.028.196.046.396.046.599 0 2.38-1.928 4.308-4.307 4.308s-4.307-1.928-4.307-4.307c0-.204.018-.403.046-.599.027-.194.066-.383.118-.567h-1.107v5.879c0 .297.241.538.538.538h9.424c.297 0 .538-.241.538-.538v-5.879h-1.107c.05.184.09.373.118.566zm7.739.6c0 6.627-5.373 12-12 12s-12-5.373-12-12 5.373-12 12-12 12 5.373 12 12zm-5-5.385c0-.892-.723-1.615-1.615-1.615h-10.77c-.892 0-1.615.723-1.615 1.615v10.769c0 .893.723 1.616 1.615 1.616h10.77c.892 0 1.615-.723 1.615-1.616v-10.769z"/></svg>

<?xml version="1.0" encoding="utf-8"?>
<!-- Generator: Adobe Illustrator 24.2.3, SVG Export Plug-In . SVG Version: 6.00 Build 0)  -->
<svg version="1.1" id="Layer_1" xmlns="http://www.w3.org/2000/svg" xmlns:xlink="http://www.w3.org/1999/xlink" x="0px" y="0px"
	 viewBox="0 0 24 24" style="enable-background:new 0 0 24 24;" xml:space="preserve">
<style type="text/css">
	.st0{fill:#116291;}
</style>
<path class="st0" d="M17.2,7.3v1.3c0,0.3-0.2,0.5-0.5,0.5h-1.3c-0.3,0-0.5-0.2-0.5-0.5V7.3c0-0.3,0.2-0.5,0.5-0.5h1.3
	C17,6.8,17.2,7,17.2,7.3z M12,14.7c1.5,0,2.7-1.2,2.7-2.7S13.5,9.3,12,9.3c-1.5,0-2.7,1.2-2.7,2.7S10.5,14.7,12,14.7z M16.3,11.4
	c0,0.2,0,0.4,0,0.6c0,2.4-1.9,4.3-4.3,4.3S7.7,14.4,7.7,12c0-0.2,0-0.4,0-0.6c0-0.2,0.1-0.4,0.1-0.6H6.7v5.9c0,0.3,0.2,0.5,0.5,0.5
	h9.4c0.3,0,0.5-0.2,0.5-0.5v-5.9h-1.1C16.2,11,16.2,11.2,16.3,11.4z M24,12c0,6.6-5.4,12-12,12S0,18.6,0,12S5.4,0,12,0S24,5.4,24,12
	z M19,6.6C19,5.7,18.3,5,17.4,5H6.6C5.7,5,5,5.7,5,6.6v10.8C5,18.3,5.7,19,6.6,19h10.8c0.9,0,1.6-0.7,1.6-1.6C19,17.4,19,6.6,19,6.6
	z"/>
</svg>
